X: 33805
T: Ray's Classic
R: polka
M: 2/4
K: Gmajor
|:G>A GD|EG D2|EA AG/A/|BA AB/A/|
G>A GD|EG D2|EA AG/A/|1 BG GB/A/:|2 BG GB/c/||
|:d>e dB|e2 e2|Ae Ae|f2 f2|
Bf Bf|g2 f>e|dB AG/A/|1 BG GB/c/:|2 BG GB/A/||

